X: 1
T: I'll Mend Your Pots And Kettles - O
M: 4/4
L: 1/8
R: reel
K: Gmaj
|:dggf/2g/2 afge|dggf/2g/2 fdzB/2c/2|dggf/2g/2 afge|dcAc BGzB/2c/2|
dggf/2g/2 afge|dggf/2g/2 fdzg/2a/2|bgaf gdze|1 dcAc BGzb/2c/2:|2 dcAc BGzD||
|:GGBB dedc|BdcA AGzD|GGBB ddgf/2g/2|agag fdzc|
BBcc ddgg/2a/2|bgaf g2zg/2a/2|bgaf gdze|1 dcAc BGzd:|2 dcAc BGz2||
